X:79
T:Golden Eagle, The
R:hornpipe
H:Also played in G, #93
D:Sean Keane: Jig It in Style
Z:id:hn-hornpipe-79
M:C|
K:A
cB|ACEA cEAc|eAce ac'ba|gfec dBGB|AcBA (3GFE (3dcB|
ACEA cEAc|eAce ac'ba|gfec dBGB|(3ABA GB A2:|
|:(3c'c'c'|c'c^eg c'bag|f^efg aga^a|bB^df bagf|(3efe ^df e2bc'|
d'bge ^defg|agab (3c'ba ba|gfec dBGB|(3ABA GB A2:|

